source/images/icons/property/property-6.svg

<svg width="160" height="160" viewBox="0 0 160 160" fill="none" xmlns="http://www.w3.org/2000/svg">
<path d="M26.0523 45.2579C20.5074 45.7452 15.8384 46.8507 14.5753 47.9303C13.8526 48.5465 13.8526 48.5465 14.3429 49.0865C14.9874 49.8062 18.0563 50.7315 21.5905 51.3228C25.5885 51.9908 34.1003 52.0162 35.3136 51.3741C36.5255 50.7061 36.9376 49.9605 36.9376 48.3927C36.9376 46.774 36.3185 45.9767 34.7198 45.5402C33.274 45.1543 28.9415 45 26.0523 45.2579Z" fill="#363636"/>
<path d="M39.7745 45.4883C39.6451 45.7715 39.5162 47.5962 39.5162 49.6001C39.5162 53.6611 39.6715 53.3784 37.3243 53.5332L36.2935 53.6103L36.0352 58.6986L34.8487 58.9818C32.2696 59.6498 30.8497 61.577 31.0572 64.2762C31.1851 66.2034 32.088 67.617 33.6358 68.3631C34.7447 68.8763 35.1055 68.9012 44.8819 68.9012C50.4268 68.9012 55.0191 68.9798 55.0704 69.0819C55.1212 69.2103 53.961 78.4891 52.4908 89.7206C51.046 100.951 49.8077 110.718 49.7823 111.387C49.731 113.004 50.6085 114.008 52.13 114.008C53.3673 114.008 54.1417 113.366 54.4513 112.106C54.5807 111.593 55.9469 101.773 57.4694 90.285C58.9914 78.8221 60.3322 69.4163 60.4098 69.4163C60.5128 69.4163 61.4928 70.8294 62.6022 72.552C65.5421 77.178 65.0011 76.8689 70.2375 76.8689H74.5959V82.4987L69.4631 82.5758C64.7429 82.6529 64.2531 82.7028 63.5818 83.191C62.009 84.3482 61.9568 84.606 61.9568 94.1676C61.9568 103.702 61.9832 103.96 63.4793 105.217L64.3304 105.913H95.6956L96.5462 105.217C98.0423 103.96 98.0667 103.702 98.0667 94.1676C98.0667 84.6061 98.0159 84.3483 96.4437 83.191C95.7728 82.7027 95.2826 82.6529 90.5619 82.5758L85.4301 82.4987V76.8689H89.7895C95.0239 76.8689 94.4829 77.178 97.4233 72.552C98.5337 70.8293 99.5131 69.4163 99.6167 69.4163C99.6929 69.4163 101.036 78.8221 102.556 90.285C104.079 101.773 105.446 111.593 105.575 112.106C105.884 113.366 106.657 114.008 107.896 114.008C109.418 114.008 110.295 113.004 110.243 111.387C110.217 110.718 108.979 100.951 107.534 89.7206C106.065 78.4892 104.903 69.2103 104.956 69.0819C105.006 68.9798 109.597 68.9012 115.145 68.9012C124.921 68.9012 125.281 68.8763 126.389 68.3631C127.937 67.617 128.839 66.2034 128.968 64.2762C129.175 61.577 127.757 59.6497 125.177 58.9818L123.99 58.6986L123.734 53.6103L122.702 53.5332C120.355 53.3784 120.508 53.6611 120.508 49.6001C120.508 47.5962 120.38 45.7715 120.252 45.4883C120.045 45.1284 119.709 45 118.884 45C118.265 45 117.646 45.1284 117.464 45.3086C117.258 45.5142 117.155 46.7739 117.155 49.2407C117.155 51.708 117.052 52.9678 116.845 53.1728C116.666 53.3525 115.944 53.4809 115.196 53.4809C113.57 53.4809 113.544 53.5331 113.544 56.5913V58.8784H46.4806V56.5913C46.4806 53.5332 46.4557 53.4809 44.8307 53.4809C44.0822 53.4809 43.3605 53.3525 43.1803 53.1728C42.9728 52.9677 42.8702 51.708 42.8702 49.2407C42.8702 46.7739 42.7672 45.5141 42.5606 45.3086C42.3799 45.1284 41.7603 45 41.1417 45C40.317 45 39.9815 45.1285 39.7745 45.4883ZM82.6173 85.6084C85.506 86.5068 88.0089 89.001 88.7833 91.7764C89.2218 93.3194 89.0929 95.9922 88.4991 97.5596C87.8028 99.4346 85.8145 101.569 83.9337 102.495C82.6437 103.137 82.1798 103.214 80.0128 103.214C77.8463 103.214 77.3819 103.137 76.0924 102.495C74.2081 101.569 72.2233 99.4346 71.5265 97.5596C70.9337 95.9922 70.8038 93.3194 71.2428 91.7764C71.9908 89.0528 74.4923 86.5069 77.3043 85.6084C79.3165 84.9659 80.6046 84.9659 82.6173 85.6084Z" fill="#363636"/>
<path d="M77.794 89.4375C75.7574 90.3633 74.2872 93.0869 74.7252 95.168C75.4991 98.8448 79.5484 100.721 82.7208 98.8701C84.7062 97.7119 85.712 95.3232 85.172 93.0869C84.6036 90.6963 82.4376 88.9492 80.0128 88.9492C79.3673 88.9493 78.3873 89.1807 77.794 89.4375Z" fill="#363636"/>
<path d="M50.0919 45.1543C46.1715 45.8223 45.5787 46.2852 45.5787 48.5981C45.5787 50.4228 46.0426 51.0141 47.8468 51.5537C49.3966 52.0161 55.0192 52.0679 58.3468 51.6821C65.2076 50.8598 69.6686 49.1377 68.0455 47.9301C66.7804 47.0302 63.1432 46.0536 58.9913 45.54C56.5157 45.232 50.9952 45 50.0919 45.1543Z" fill="#363636"/>
<path d="M103.484 45.2579C97.1652 45.8482 91.6202 47.339 91.6202 48.4439C91.6202 50.1661 99.461 51.9136 107.25 51.9395C113.054 51.9395 114.446 51.2974 114.446 48.5982C114.446 46.774 113.827 45.9766 112.073 45.5142C110.424 45.1026 106.398 45 103.484 45.2579Z" fill="#363636"/>
<path d="M126.776 45.2833C124.996 45.5143 123.758 46.0538 123.346 46.774C122.959 47.5445 123.036 49.6778 123.5 50.3458C124.428 51.6568 125.152 51.8111 130.568 51.8111C134.23 51.8111 136.37 51.6822 138.435 51.3228C141.969 50.7315 145.038 49.8062 145.683 49.0865C146.173 48.5465 146.173 48.5465 145.45 47.9303C144.109 46.7994 139.492 45.7452 133.534 45.2579C130.053 44.9747 129.046 44.9747 126.776 45.2833Z" fill="#363636"/>
</svg>

<svg width="160" height="160" viewBox="0 0 160 160" fill="none" xmlns="http://www.w3.org/2000/svg"><path d="M26.05 45.26c-5.54.49-10.21 1.6-11.47 2.67-.73.62-.73.62-.24 1.16.65.72 3.72 1.64 7.25 2.23 4 .67 12.51.7 13.72.05 1.22-.66 1.63-1.4 1.63-2.98 0-1.62-.62-2.41-2.22-2.85-1.45-.39-5.78-.54-8.67-.28zm13.72.23c-.12.28-.25 2.1-.25 4.11 0 4.06.15 3.78-2.2 3.93l-1.03.08-.25 5.09-1.2.28a4.75 4.75 0 00-3.78 5.3c.13 1.92 1.03 3.34 2.58 4.08 1.1.52 1.47.54 11.24.54 5.55 0 10.14.08 10.19.18.05.13-1.1 9.4-2.58 20.64-1.44 11.23-2.68 21-2.7 21.67-.06 1.61.82 2.62 2.34 2.62 1.24 0 2.01-.64 2.32-1.9.13-.52 1.5-10.34 3.02-21.83a727.78 727.78 0 012.94-20.86c.1 0 1.08 1.4 2.2 3.13 2.93 4.63 2.4 4.32 7.63 4.32h4.36v5.63l-5.14.08c-4.72.07-5.2.12-5.88.61-1.57 1.16-1.62 1.42-1.62 10.98 0 9.53.02 9.79 1.52 11.05l.85.7H95.7l.85-.7c1.5-1.26 1.52-1.52 1.52-11.05 0-9.56-.05-9.82-1.63-10.98-.67-.49-1.16-.54-5.88-.61l-5.13-.08v-5.63h4.36c5.23 0 4.7.3 7.63-4.32a25.53 25.53 0 012.2-3.13c.07 0 1.42 9.4 2.94 20.86a1087.3 1087.3 0 003.02 21.83c.3 1.26 1.08 1.9 2.32 1.9 1.52 0 2.4-1 2.34-2.62-.02-.67-1.26-10.44-2.7-21.67a899.97 899.97 0 01-2.58-20.64c.05-.1 4.64-.18 10.19-.18 9.77 0 10.13-.02 11.24-.54 1.55-.74 2.45-2.16 2.58-4.08a4.75 4.75 0 00-3.8-5.3L124 58.7l-.26-5.09-1.03-.08c-2.34-.15-2.2.13-2.2-3.93 0-2-.12-3.83-.25-4.11-.2-.36-.54-.49-1.37-.49-.61 0-1.23.13-1.42.3-.2.21-.3 1.47-.3 3.94 0 2.47-.1 3.73-.31 3.93-.18.18-.9.31-1.65.31-1.63 0-1.66.05-1.66 3.11v2.29H46.48v-2.29c0-3.06-.02-3.1-1.65-3.1-.75 0-1.47-.14-1.65-.32-.2-.2-.31-1.46-.31-3.93s-.1-3.73-.3-3.93c-.19-.18-.81-.31-1.43-.31-.82 0-1.16.13-1.37.49zM82.62 85.6a9.5 9.5 0 016.16 6.17c.44 1.54.31 4.21-.28 5.78-.7 1.87-2.69 4-4.57 4.94-1.29.64-1.75.71-3.92.71-2.16 0-2.63-.07-3.92-.71a10.22 10.22 0 01-4.56-4.94c-.6-1.57-.73-4.24-.29-5.78a9.58 9.58 0 016.06-6.17 7.56 7.56 0 015.32 0z" fill="#363636"/><path d="M77.8 89.44c-2.04.92-3.51 3.65-3.07 5.73a5.43 5.43 0 008 3.7 5.3 5.3 0 002.44-5.78 5.38 5.38 0 00-5.16-4.14c-.64 0-1.62.23-2.22.49zM50.1 45.15c-3.93.67-4.52 1.14-4.52 3.45 0 1.82.46 2.41 2.27 2.95 1.55.47 7.17.52 10.5.13 6.86-.82 11.32-2.54 9.7-3.75-1.27-.9-4.9-1.88-9.06-2.39-2.47-.3-8-.54-8.9-.39zm53.38.11c-6.31.59-11.86 2.08-11.86 3.18 0 1.73 7.84 3.47 15.63 3.5 5.8 0 7.2-.64 7.2-3.34 0-1.83-.62-2.62-2.38-3.09-1.65-.4-5.67-.51-8.59-.25zm23.3.02c-1.78.23-3.02.77-3.43 1.5-.4.76-.31 2.9.15 3.57.93 1.3 1.65 1.46 7.07 1.46 3.66 0 5.8-.13 7.87-.49 3.53-.59 6.6-1.51 7.24-2.23.5-.54.5-.54-.23-1.16-1.34-1.13-5.96-2.18-11.92-2.67-3.48-.29-4.48-.29-6.75.02z" fill="#363636"/></svg>
